!!!OTL: Sweet Fair Ella
!!!ONM: 146.
**kern
*clefG2
*k[]
*C:
*M4/4
*MM84
{4c
=1
4.e
8d
4.g
8e
=2
4f
2a}
{8g
8g
=3
4.g
8e
4c
(8d
8e)
=4
2d
4r}
{4c
=5
4.e
8d
4.g
8e
=6
4f
2a}
{4g
=7
4.g
8e
(4g
8f)
8d
=8
2.c}
==
*-
!!!CNT: Folksongs of Maritime Canada
!!!MRD: 1928///-1932///
!!!OCL: Helen Creighton
!!!YOR: Songs and Ballads from Nova Scotia
!!!PPR: J.M. Dent & Sons, Limited
!!!PPP: Toronto, Canada
!!!PDT: 1932///
!!!reprint: Dover Publications, 1992: ISBN 0-486-21703-5
!!!ENC1: Craig Stuart Sapp (music and bibliographic data)                       
!!!ENC2: Marcus Pearce (phrase markings and key designations)                   
!!!ENC3: Darrell Conklin (phrase markings and key designations)   
!!!END: 2002/04/10/
!!!EEV: 2004/06/05
!!!MPN: Mr. Edward Hartley
!!!PPG: 320
!!!EFL: 148/152
!!!ARE: Canada; Nova Scotia
!!!verses: 7
!!!VTS: 1989524039
